!!!!SEGMENT: pl-wtm--a-37-261_gold-artur--opjum-noca-skrzydla-sow-lopoca.krn
!!!cenid: 19xx:8
!!!COM: Gold, Artur
!!!COM-rismID: pe50044903
!!!CDT: 1897/03/17-1943
!!!CNT: Polish
!!!OTL: Opjum/Nocą skrzydła sów łopocą
!!!PDT: 1933
!!!AGN: Secular
!!!YEC: Copyright 2022 Narodowy Instytut Fryderyka Chopina (https://polishscores.org)
!!!YEM: License CC-BY-4.0 (https://creativecommons.org/licenses/by/4.0)
!!!SMS-siglum: PL-Wtm
!!!SMS-shelfmark: A.37.261
!!!SMS-variant:
!!!SMS-altvar:
!!!SMS-shelfwork: W
!!!NIFC-rismSourceID: 1001220324
!!!NIFC-rismChildID: 1001220324
!!!NIFC-islandoraID: pl-wtm:96549
!!!URL-pdf-islandora: https://repozytorium.nifc.pl/islandora/object/pl-wtm%3A96549/datastream/PDF/view
!!!URL-scan: https://polish.musicsources.pl/pl/lokalizacje/galeria/druki-muzyczne/21639/2 @EN{Scan on Polish Music Sources Website} @PL{Skany w portalu Dziedzictwo Muzyki Polskiej w otwartym dostępie}
!!!IIIF:
!!!ONB-nifc:
!!!OMD: Tempo di Valse lento.
!!!AIN: 1 piano 1 vox
!!!key:
**kern	**kern	**dynam	**kern	**text	**text
*part2	*part2	*part2	*part1	*part1	*part1
*staff3	*staff2	*	*staff1	*staff1	*staff1
*I"[Pianoforte]	*	*	*I"[Voce]	*	*
*Ipiano	*	*	*Ivox	*	*
*ICklav	*	*	*ICvox	*	*
*IGacmp	*	*	*IGsolo	*	*
*clefF4	*clefG2	*	*clefG2	*	*
*k[b-]	*k[b-]	*	*k[b-]	*	*
*d:	*d:	*	*d:	*	*
*M3/4	*M3/4	*	*M3/4	*	*
*>[A,B,B1,B,B2,C]	*>[A,B,B1,B,B2,C]	*	*>[A,B,B1,B,B2,C]	*	*
=1	=1	=1	=1	=1	=1
*>A	*>A	*	*>A	*	*
(4.DD/ 4.D	4r	f	2.ryy	.	.
.	2A/ 2d 2f 2a	.	.	.	.
8EE/L 8E	.	.	.	.	.
8FF/ 8F	.	.	.	.	.
8GG/J 8G	.	.	.	.	.
=2	=2	=2	=2	=2	=2
2GG#X/ 2G#X	4r	.	2.ryy	.	.
.	(>4B-^>/ 4d 4f 4b-	.	.	.	.
4AA/) 4A	4c#X/) 4g 4a	.	.	.	.
=3	=3	=3	=3	=3	=3
(4.DD/	4r	.	2.ryy	.	.
!	!	!LO:DY:rj	!	!	!
.	2A/ 2d 2f 2a	mf	.	.	.
8EE/L	.	.	.	.	.
8FF/	.	.	.	.	.
8GG/J	.	.	.	.	.
=4	=4	=4	=4	=4	=4
2GG#X/	4r	.	2.ryy	.	.
.	((4B-^>/ 4d 4f 4b-	.	.	.	.
4AA/)	4A/)) 4c#X 4g 4a	.	.	.	.
=5	=5	=5	=5	=5	=5
2.DD/ 2.D	4r	.	2.ryy	.	.
.	2A/ 2d 2f	.	.	.	.
=6	=6	=6	=6	=6	=6
*	*^	*	*	*	*
2BBB-/ 2BB-	4r	4ryy	.	2.ryy	.	.
.	(4f^/	2G\ 2c#X	.	.	.	.
4AAA/ 4AA	4e/)	.	.	.	.	.
*	*v	*v	*	*	*	*
=7	=7	=7	=7	=7	=7
2.DD/ 2.D	4r	>	2.ryy	.	.
.	2A/ 2d 2f	.	.	.	.
.	.	.	.	.	.
=8	=8	=8	=8	=8	=8
*	*^	*	*	*	*
2BBB-/ 2BB-	4r	4ryy	.	2.ryy	.	.
.	(4f^/	2G\ 2c#X	.	.	.	.
4AAA/ 4AA	4e/)	.	]]	.	.	.
!!LO:LB:g=original
=9||	=9||	=9||	=9||	=9||	=9||	=9||
*>B	*>B	*>B	*	*>B	*	*
*	*	*	*	*	*v:1	*v:2
!LO:TX:b:t=[segno]:rj	!LO:TX:a:t=[segno]:rj	!	!	!LO:TX:a:t=[segno]:rj	!	!
2DD/ 2D	4A/ 4a	4ryy	p	4a/	No-	Ży-
.	2a/	4A\ 4d 4f	.	2a/	-cą	-cie!
4r	.	4A\ 4d 4f	.	.	.	.
*	*v	*v	*	*	*	*
=10	=10	=10	=10	=10	=10
*^	*	*	*	*	*
4r	2.BBB-\	4r	.	4r	.	.
2E/ 2G 2B- 2d	.	8g\L	.	8g/	Skrzy-	Wchła-
.	.	8a\	.	8a/	-dła	-niam
.	.	8b-\	.	8b-\	sów	cię
.	.	8dd\J	.	8dd\	ło-	w za-
*v	*v	*	*	*	*	*
=11	=11	=11	=11	=11	=11
*	*^	*	*	*	*
2DD/ 2D	4A/ 4a	4ryy	.	4a/	-po-	-chwy-
.	2a/	4A\ 4d 4f	.	2a/	-cą	-cie,
4r	.	4A\ 4d 4f	.	.	.	.
*	*v	*v	*	*	*	*
=12	=12	=12	=12	=12	=12
*^	*	*	*	*	*
4r	2.BBB-\	4r	.	4r	.	.
2E/ 2G 2B- 2d	.	8g\L	.	8g/	I	Pi-
.	.	8a\	.	8a/	ła-	-ję
.	.	8b-\	.	8b-\	-go-	aż
.	.	8dd\J	.	8dd\	-dny	do
*v	*v	*	*	*	*	*
=13	=13	=13	=13	=13	=13
*	*^	*	*	*	*
2.DD\ 2.D	4.A/ 4.a	4r	.	4.a/	mrok	dna
.	.	4d\ 4f	.	.	.	.
.	8g/L	.	.	8g/	Swą	Tę
.	8f/	4A\ 4d 4f	.	8f/	kła-	złu-
.	8a/J	.	.	8a/	-dzie	-dę,
*	*v	*v	*	*	*	*
=14	=14	=14	=14	=14	=14
*^	*	*	*	*	*
4r	2.BBB-\ 2.BB-	4.g/	.	4.g/	dłoń	co
2E/ 2G 2B- 2d	.	.	.	.	.	.
.	.	8f/L	.	8f/	Na	W mem
.	.	8e/	.	8e/	mo-	ser-
.	.	8g/J	.	8g/	-ją	-cu
!!LO:LB:g=original
=15	=15	=15	=15	=15	=15	=15
*	*	*	*	*	*v:1	*v:2
4r	2.AAA-X\ 2.AA-X	4.f/	.	4.f/	skroń,	trwa,
2D/ 2F 2Bn	.	.	.	.	.	.
.	.	8e/L	.	8e/	zmę-	wie-
.	.	8d/	.	8d/	-czo-	-czy-
.	.	8f/J	.	8f/	-ną	-ście
*v	*v	*	*	*	*	*
=16	=16	=16	=16	=16	=16
*	*^	*	*	*	*
4AAAn/ 4AAn	8e/L	4G\ 4c#X	.	8e/	skroń...	trwa...
.	8A/	.	.	8A/	I	I
4r	8d/	4r	.	8d/	nikt	znów
.	8e/	.	.	8e/	w błę-	z u-
4r	8f/	4r	.	8f/	-ki-	-śmie-
.	8g/J	.	.	8g/	-tnej	-chem
=17	=17	=17	=17	=17	=17	=17
2DD/ 2D	4A/ 4a	4ryy	.	4a/	ni-	wie-
.	2a/	4A\ 4d 4f	.	2a/	-szy	-rzę
4r	.	4A\ 4d 4f	.	.	.	.
*	*v	*v	*	*	*	*
=18	=18	=18	=18	=18	=18
*^	*	*	*	*	*
4r	2.BBB-\	4r	.	4r	.	.
2E/ 2G 2B- 2d	.	8g\L	.	8g/	Nie	Two-
.	.	8a\	.	8a/	prze-	-ich
.	.	8b-\	.	8b-\	-ry-	słów
.	.	8dd\J	.	8dd\	-wa	chi-
*v	*v	*	*	*	*	*
=19	=19	=19	=19	=19	=19
*	*^	*	*	*	*
2.FF/ 2.F	4A/ 4a	4ryy	.	4a/	ci-	-me-
.	2a/	4A\ 4d 4f	.	2a/	-szy,	-rze,
.	.	4A\ 4d 4f	.	.	.	.
*	*v	*v	*	*	*	*
=20	=20	=20	=20	=20	=20
2.EE/ 2.E	4r	.	4r	.	.
.	8G#X/L 8d 8g#X	.	8g#X/	A-	Łu-
.	8A/ 8a	.	8a/	-le	-dzę
.	8Bn/ 8d 8bn	.	8bn\	ser-	się,
.	8d/J 8dd	.	8dd\	-ce	że
!!LO:LB:g=original
=21	=21	=21	=21	=21	=21
*^	*^	*	*	*	*
*	*	*	*	*	*	*v:1	*v:2
4r	2.AA\	4c#X/ 4e 4a 4cc#X	4ryy	.	4cc#X\	sły-	szcze-
4E/ 4A	.	2c#/ 2cc#	4f#X\	.	2cc#\	-szy	-rze
4E/ 4A	.	.	4fn\	.	.	.	.
*v	*v	*	*	*	*	*	*
=22	=22	=22	=22	=22	=22	=22
4EE/	4r	4e\	.	4r	.	.
4E\ 4G#X	8d/L 8e 8bn	4ryy	.	8bn\	Głos	Ko-
.	8cc#X/	.	.	8cc#X\	zmie-	-chasz
4EE/	8d/ 8g#X 8dd	4ryy	.	8dd\	-nio-	je-
.	8f/J 8ff	.	.	8ff\	-ny	-den
=23	=23	=23	=23	=23	=23	=23
*^	*	*	*	*	*	*
4r	2.AA\	[2.g/ [2.ee	4r	.	[2.ee\	twój...	ty!
(4d^/	.	.	[4g^\ 4b-	.	.	.	.
4c#X/)	.	.	4g\] 4a	.	.	.	.
=24	=24	=24	=24	=24	=24	=24	=24
4r	2AA\	2g/] 2ee]	4r	.	4ee\]	.	.
(4d^/	.	.	[4g^\ 4b-	.	4r	.	.
8c#X/)	4r	8r	8g\] 8a	.	8r	.	.
*	*	*	*	*	*	*v:1. 2.	*
8r	.	8A/	8r	.	8A/	Gdy	.
*	*	*v	*v	*	*	*	*
=25||	=25||	=25||	=25||	=25||	=25||	=25||
!	!	!	!	!LO:TX:a:t=Refrain.	!	!
4r	2.CC#X\ 2.C#X	[2B-/	mf	[2B-/	mó-	.
4E/ 4G	.	.	.	.	.	.
4E/ 4G	.	8B-/L]	.	8B-/]	.	.
.	.	8A/J	.	8A/	-wisz	.
=26	=26	=26	=26	=26	=26	=26
4r	2.AAA\ 2.AA	[2f/	.	[2f/	mi,	.
4G/ 4A	.	.	.	.	.	.
4G/ 4A	.	8f/L]	.	8f/]	.	.
.	.	8c#X/J	.	8c#X/	że	.
!!LO:LB:g=original
=27	=27	=27	=27	=27	=27	=27
4r	2DD\ 2D	[2e/	.	[2e/	ko-	.
4F/ 4A	.	.	.	.	.	.
4F/ 4A	4r	8e/L]	.	8e/]	.	.
.	.	8d/J	.	8d/	-chasz	.
*v	*v	*	*	*	*	*
=28	=28	=28	=28	=28	=28
*	*^	*	*	*	*
2.FF/ 2.F	[2a/	4r	.	[2a/	mnie	.
.	.	4A\ 4d	.	.	.	.
.	8a/L]	4A\ 4d	.	8a/]	.	.
.	8A/J	.	.	8A/	Twe	.
*	*v	*v	*	*	*	*
=29	=29	=29	=29	=29	=29
*^	*	*	*	*	*
4r	2.CC#X\ 2.C#X	[2B-/	.	[2B-/	sło-	.
4E/ 4G	.	.	.	.	.	.
4E/ 4G	.	8B-/L]	.	8B-/]	.	.
.	.	8A/J	.	8A/	-wa	.
=30	=30	=30	=30	=30	=30	=30
4r	2.AAA\ 2.AA	[2f/	.	[2f/	są	.
4G/ 4A	.	.	.	.	.	.
4G/ 4A	.	8f/L]	.	8f/]	.	.
.	.	8c#X/J	.	8c#X/	jak	.
*v	*v	*	*	*	*	*
=31	=31	=31	=31	=31	=31
*	*^	*	*	*	*
(2DD/ 2D	4e/	4r	.	4e/	o-	.
.	[2d/	[2F\ [2A	.	[2d/	-pjum	.
4AA/	.	.	.	.	.	.
=32	=32	=32	=32	=32	=32	=32
4C/	2d/]	2F\] 2A]	.	2d/]	.	.
4BB-/	.	.	.	.	.	.
4AA/)	8r	4rc	.	8r	.	.
.	8d/	.	.	8d/	O-	.
*	*v	*v	*	*	*	*
=33	=33	=33	=33	=33	=33
4FF#X/	[2e-X/	.	[2e-X/	-du-	.
4D\ 4F#X 4c	.	.	.	.	.
4D\ 4F# 4c	8e-/L]	.	8e-/]	.	.
.	8d/J	.	8d/	-rzasz	.
!!LO:PB:g=original
=34	=34	=34	=34	=34	=34
4DD/	[2b-\	.	[2b-\	mnie	.
4D\ 4F#X 4c	.	.	.	.	.
4D\ 4F# 4c	8b-/L]	.	8b-\]	.	.
.	8f#X/J	.	8f#X/	w tym	.
=35	=35	=35	=35	=35	=35
4BB-/	[2a/	.	[2a/	dzi-	.
4D\ 4G 4B-	.	.	.	.	.
4D\ 4G 4B-	8a/L]	.	8a/]	.	.
.	8g/J	.	8g/	-wnym	.
=36	=36	=36	=36	=36	=36
4BB-/	2g/	.	2g/	śnie	.
4D\ 4G 4B-	.	.	.	.	.
4r	4g#X/	.	4g#X/	Sło-	.
=37	=37	=37	=37	=37	=37
4EE/ 4E	4a/	.	4a/	-wa-	.
4G\ 4A 4c#X	4a/	.	4a/	-mi	.
4G\ 4A 4c#	4b-\	.	4b-\	won-	.
=38	=38	=38	=38	=38	=38
4AA/	4a/	.	4a/	-ne-	.
4G\ 4A	4d#X/	.	4d#X/	-mi	.
4G\ 4A	8r	.	8r	.	.
.	8e/	.	8e/	jak	.
=39	=39	=39	=39	=39	=39
*	*^	*	*	*	*
(2DD/ 2D	4g/	4r	.	4g/	o-	.
.	[2f/	[2A\ [2d	.	[2f/	-pjum...	.
4AA/	.	.	.	.	.	.
=40	=40	=40	=40	=40	=40	=40
4C/	2f/]	2A\] 2d]	.	2f/]	.	.
4BB-/	.	.	.	.	.	.
4AA/)	8r	4rc	.	8r	.	.
.	8A/	.	.	8A/	I	.
*	*v	*v	*	*	*	*
!!LO:LB:g=original
=41	=41	=41	=41	=41	=41
*^	*	*	*	*	*
4r	2.CC#X\ 2.C#X	[2B-/	.	[2B-/	mo-	.
4E/ 4G	.	.	.	.	.	.
4E/ 4G	.	8B-/L]	.	8B-/]	.	.
.	.	8A/J	.	8A/	-dlę	.
=42	=42	=42	=42	=42	=42	=42
4r	2.AAA\ 2.AA	[2f/	.	[2f/	się	.
4G/ 4A	.	.	.	.	.	.
4G/ 4A	.	8f/L]	.	8f/]	.	.
.	.	8c#X/J	.	8c#X/	niech	.
=43	=43	=43	=43	=43	=43	=43
4r	2.DD\ 2.D	[2e/	.	[2e/	wie-	.
4F/ 4A	.	.	.	.	.	.
4F/ 4A	.	8e/L]	.	8e/]	.	.
.	.	8d/J	.	8d/	-cznie	.
*v	*v	*	*	*	*	*
=44	=44	=44	=44	=44	=44
*	*^	*	*	*	*
2.FF/ 2.F	[2a/	4r	.	[2a/	trwa	.
.	.	4A\ 4d	.	.	.	.
.	8a/L]	4A\ 4d	.	8a/]	.	.
.	8A/J	.	.	8A/	Pie-	.
*	*v	*v	*	*	*	*
=45	=45	=45	=45	=45	=45
*^	*	*	*	*	*
4r	2.CC#X\ 2.C#X	[2B-/	.	[2B-/	-szczo-	.
4E/ 4G	.	.	.	.	.	.
4E/ 4G	.	8B-/L]	.	8B-/]	.	.
.	.	8A/J	.	8A/	-ta	.
=46	=46	=46	=46	=46	=46	=46
4r	2.AAA\ 2.AA	[2f/	.	[2f/	ust	.
4G/ 4A	.	.	.	.	.	.
4G/ 4A	.	8f/L]	.	8f/]	.	.
.	.	8c#X/J	.	8c#X/	jak	.
*v	*v	*	*	*	*	*
!!LO:LB:g=original
=47	=47	=47	=47	=47	=47
*	*^	*	*	*	*
4DD/ 4D	4e/	4r	.	4e/	o-	.
4r	[2d/	4F\ 4A	.	[2d/	-pjum,	.
4r	.	4F\ 4A	.	.	.	.
=48	=48	=48	=48	=48	=48	=48
4DD/ 4D	4d/]	4r	.	4d/]	.	.
4r	4e/	2F\ 2A	.	4r	.	.
4r	4f/	.	.	4r	.	.
=49	=49	=49	=49	=49	=49	=49
4BBB-/ 4BB-	4g/	2d\ 2e	<	4g/	Aż	.
4D\ 4G 4B-	4a/	.	.	4a/	two-	.
4r	4b-/	4e\ 4g	.	4b-\	-ja	.
=50	=50	=50	=50	=50	=50	=50
4EE/	4dd/	4d\ 4g 4b-	.	4dd\	mi-	.
4E\ 4G 4B-	4cc/	4d\ 4g	.	4cc\	-łość	.
4r	4b-/	4d\ 4g	.	4b-\	o-	.
=51	=51	=51	=51	=51	=51	=51
4FF/	4a/	4d\ 4f	.	4a/	-błęd-	.
4F\ 4A 4d	4f/ 4a 4dd	4ryy	.	4dd\	-na	.
4r	4f/ 4a 4ee	4ryy	[[	4ee\	i	.
*	*v	*v	*	*	*	*
=52	=52	=52	=52	=52	=52
4GG#X/	2f;/ 2g#X 2bn 2dd 2ff	f	2ff;\	zła	.
4F\ 4G#X 4Bn 4d	.	.	.	.	.
4r	8r	.	8r	.	.
.	8A/	p	8A/	Za-	.
!!LO:LB:g=original
=53	=53	=53	=53	=53	=53
*^	*	*	*	*	*
4r	2.CC#X\ 2.C#X	[2B-/	.	[2B-/	-tru-	.
4E/ 4G	.	.	.	.	.	.
4E/ 4G	.	8B-/L]	.	8B-/]	.	.
.	.	8A/J	.	8A/	-je	.
=54	=54	=54	=54	=54	=54	=54
4r	2.AAA\ 2.AA	[2f/	.	[2f/	mnie	.
4G/ 4A	.	.	.	.	.	.
4G/ 4A	.	8f/L]	.	8f/]	.	.
.	.	8c#X/J	.	8c#X/	jak	.
*v	*v	*	*	*	*	*
=55	=55	=55	=55	=55	=55
*	*^	*	*	*	*
2DD/ 2D	4e/	4r	.	4e/	o-	.
.	[2d/	4F\ 4A	.	[2d/	-pjum...	.
4AA/	.	4F\ 4A	.	.	.	.
=56||	=56||	=56||	=56||	=56||	=56||	=56||
*>B1	*>B1	*>B1	*	*>B1	*	*
4DD/	4d/]	4F\ 4A	.	4d/]	.	.
4r	4ree	4r	.	4r	.	.
4r	4ree	4r	.	4r	.	.
=57||	=57||	=57||	=57||	=57||	=57||	=57||
*>B2	*>B2	*>b2	*	*>b2	*	*
!LO:TX:b:t=[segno]:rj	!LO:TX:a:t=[segno]:rj	!	!	!LO:TX:a:t=[segno]:rj	!	!
!	!	!	!	!LO:TIE:lv	!	!
!	!	!	!	!LO:TX:a:i:t=l.v.	!	!
4DD/	4d/	4F\ 4A	.	4d/]	.	.
4r	8b-/L 8ee	4r	.	4r	.	.
.	8g/ 8dd	.	.	.	.	.
4r	8b-/ 8ee	4r	.	4r	.	.
.	8g/J 8dd	.	.	.	.	.
*	*v	*v	*	*	*	*
=58	=58	=58	=58	=58	=58
*^	*	*	*	*	*
4r	[2.EE\	[2.g/ [2.b-	.	2.r	.	.
4BB-/ 4D 4E 4G	.	.	.	.	.	.
4D/ 4E 4G 4B-	.	.	.	.	.	.
=59	=59	=59	=59	=59	=59	=59
*>C	*>C	*>C	*	*>C	*	*
!	!	!	!	!LO:TX:t=P:problem:*>C użyte ze względów graficznych	!	!
4G/ 4B- 4d 4e	4EE\]	4g/] 4b-]	.	2.r	.	.
4rFF	4rc	8b-\L 8ee	.	.	.	.
.	.	8g\ 8dd	.	.	.	.
4rFF	4rc	8b-\ 8ee	.	.	.	.
.	.	8g\J 8dd	.	.	.	.
!!LO:LB:g=original
=60	=60	=60	=60	=60	=60	=60
4r	[2.DD\	[2.f/ [2.a	.	2.r	.	.
4D/ 4F 4A	.	.	.	.	.	.
4F/ 4A 4d	.	.	.	.	.	.
=61	=61	=61	=61	=61	=61	=61
!LO:TX:a:t=P:problem=n=3:nuta w nawiasie	!	!	!	!	!	!
4A/ 4d 4f	4DD\]	4f/] 4a]	.	2.r	.	.
4r	4GG#X\	4r	.	.	.	.
4r	4AA\	4r	.	.	.	.
*v	*v	*	*	*	*	*
=62	=62	=62	=62	=62	=62
[2BB-/	4r	.	2.r	.	.
.	4c#X/ 4g 4b-	.	.	.	.
8BB-/L]	4r	.	.	.	.
8AA/J	.	.	.	.	.
=63	=63	=63	=63	=63	=63
[2F\	4r	.	2.r	.	.
.	4A/ 4c#X 4g 4a	.	.	.	.
8F\L]	4r	.	.	.	.
8C#X\J	.	.	.	.	.
=64	=64	=64	=64	=64	=64
4E\	4r	.	2.r	.	.
2D\	2A/ 2d 2f 2a	.	.	.	.
=65	=65	=65	=65	=65	=65
4G~\ 4B- 4e	4g~\ 4b- 4ee	.	2.r	.	.
4G~\ 4B- 4e	4g~\ 4b- 4dd	.	.	.	.
4G~\ 4B- 4e	4g~\ 4b- 4ee	.	.	.	.
=66	=66	=66	=66	=66	=66
2.DD;:/ 2.AA: 2.F#X:	2.f#X;\ 2.a 2.dd 2.ff#X	>]	2.r	.	.
==	==	==	==	==	==
*-	*-	*-	*-	*-	*-
!!!system-decoration: s1{(s2,s3)}
!!!RDF**kern: < = below
!!!RDF**kern: > = above
!!!ENC: Berenika Jozajtis
!!!END: 2023-08-26
!!!ENC: Marta Chmielewska
!!!END: 2023-09-23
